X:3986
L:1/16
M:2/4
K:F
 cA"^A" |:"C7" B2ce B2cB |"F" A2cf A2dc |"C7" cbbc d2>c2 |"F" caac d2cA |"C7" B2ce B2cB | 
"F" A2cf A2dc |"C7" c'2b2 a2g2 |1"F" f2a2 f2cA :|2"F" f2a2 f2 z2"^B" |:[K:C]"C" g2c'e g4 | 
 cegc e2>c2 |"G7" Bcde fgab |"C" c'2b2 a2>g2 | g2c'e g4 | cegc e2>c2 |"G7" Bcde fgab | 
"C" c'2c'2 c'2"_>Teil A" z2 ::[K:Bb]"^C""Bb" b2a2 g2>f2 |"Cm" f2e2 c2>d2 | f2e2 G2A2 | 
"Bb" BABc dfga | b2a2 g2>f2 |"Cm" a2g2 c2>d2 |"F" f2e2 G2A2 |1"Bb" B2d2 B2ff :|2 
"Bb" B2d2 B2"_Fine" z2 |]

